static/covid/stop.svg

<svg width="60" height="60" fill="none" xmlns="http://www.w3.org/2000/svg"><path d="M50.18 30.27c-1.71-1.29-3.69-.79-4.67.54-.12.16-.3.25-.5.22l-.47-.07c-.52-.07-.92-.51-.93-1.03-.03-2.09-.56-4.1-1.49-5.88a1.12 1.12 0 01.33-1.41l.33-.25a.58.58 0 01.57-.05c1.5.69 3.46.17 4.34-1.77.18-.4.25-.85.19-1.29-.37-2.79-3.25-3.75-5.11-2.36a3.18 3.18 0 00-1.24 3c.03.2-.04.41-.2.53l-.33.25c-.44.33-1.05.3-1.45-.08a13.09 13.09 0 00-5.2-3.08c-.5-.16-.82-.66-.74-1.18l.07-.47c.03-.2.17-.35.35-.41 1.55-.57 2.59-2.33 1.83-4.33a2.46 2.46 0 00-.78-1.05c-2.23-1.71-4.95-.35-5.28 1.95-.17 1.19.34 2.32 1.24 2.99.17.12.26.32.23.52l-.06.45c-.07.52-.51.92-1.03.93-2.09.03-4.1.56-5.88 1.49-.49.25-1.08.11-1.41-.33l-.25-.33a.58.58 0 01-.05-.57c.69-1.5.17-3.46-1.77-4.34-.4-.18-.85-.25-1.29-.19-2.79.37-3.75 3.25-2.36 5.11.72.96 1.88 1.4 3 1.24.2-.03.41.04.53.2l.25.33c.33.44.3 1.05-.08 1.45a13.09 13.09 0 00-3.08 5.2c-.16.5-.66.82-1.18.74l-.47-.07a.51.51 0 01-.41-.35c-.57-1.55-2.33-2.59-4.33-1.83-.41.16-.78.43-1.05.78-1.71 2.23-.35 4.95 1.95 5.28 1.19.17 2.32-.34 2.99-1.24a.54.54 0 01.52-.23l.45.06c.52.07.92.51.93 1.03.03 2.09.56 4.1 1.49 5.88.25.49.11 1.08-.33 1.41l-.33.25a.58.58 0 01-.57.05c-1.5-.69-3.46-.17-4.34 1.77-.18.4-.25.85-.19 1.29.37 2.79 3.25 3.75 5.11 2.36a3.18 3.18 0 001.24-3c-.03-.2.04-.41.2-.53l.33-.25c.44-.33 1.05-.3 1.45.08a13.09 13.09 0 005.2 3.08c.5.16.82.66.74 1.18l-.07.47a.51.51 0 01-.35.41c-1.55.57-2.59 2.33-1.83 4.33.16.41.43.78.78 1.05 2.23 1.71 4.95.35 5.28-1.95.17-1.19-.34-2.32-1.24-2.99a.54.54 0 01-.23-.52l.06-.45c.07-.52.51-.92 1.03-.93 2.09-.03 4.1-.56 5.88-1.49a1.12 1.12 0 011.41.33l.25.33c.12.17.13.38.05.57-.69 1.5-.17 3.46 1.77 4.34.4.18.85.25 1.29.19 2.79-.37 3.75-3.25 2.36-5.11a3.18 3.18 0 00-3-1.24c-.2.03-.41-.04-.53-.2l-.25-.33c-.33-.44-.3-1.05.08-1.45a13.09 13.09 0 003.08-5.2c.16-.5.66-.82 1.18-.74l.45.07c.2.03.36.18.44.37a3.173 3.173 0 002.52 2.04c2.3.33 4.37-1.89 3.36-4.52-.15-.42-.43-.79-.78-1.05z" fill="#319EFF"/><path d="M52.06 10.82l4.52-4.52-2.1-2.1L50 8.68C44.76 3.77 37.73.75 30 .75 13.87.75.75 13.87.75 30c0 7.73 3.02 14.76 7.93 20L3.4 55.28l2.1 2.1 5.32-5.32c5.14 4.47 11.85 7.19 19.18 7.19 16.13 0 29.25-13.12 29.25-29.25 0-7.33-2.72-14.04-7.19-19.18zM3.72 30C3.72 15.51 15.51 3.72 30 3.72c6.91 0 13.21 2.69 17.9 7.06L10.78 47.9A26.153 26.153 0 013.72 30zM30 56.28c-6.51 0-12.48-2.39-17.08-6.33l37.03-37.03c3.94 4.6 6.33 10.56 6.33 17.08 0 14.49-11.79 26.28-26.28 26.28z" fill="#FF4633"/></svg>

<svg width="60" height="60" viewBox="0 0 60 60" fill="none" xmlns="http://www.w3.org/2000/svg">
<path d="M50.18 30.27C48.47 28.98 46.49 29.48 45.51 30.81C45.39 30.97 45.21 31.06 45.01 31.03L44.54 30.96C44.02 30.89 43.62 30.45 43.61 29.93C43.58 27.84 43.05 25.83 42.12 24.05C41.87 23.56 42.01 22.97 42.45 22.64L42.78 22.39C42.95 22.27 43.16 22.26 43.35 22.34C44.85 23.03 46.81 22.51 47.69 20.57C47.87 20.17 47.94 19.72 47.88 19.28C47.51 16.49 44.63 15.53 42.77 16.92C41.81 17.64 41.37 18.8 41.53 19.92C41.56 20.12 41.49 20.33 41.33 20.45L41 20.7C40.56 21.03 39.95 21 39.55 20.62C38.11 19.23 36.34 18.16 34.35 17.54C33.85 17.38 33.53 16.88 33.61 16.36L33.68 15.89C33.71 15.69 33.85 15.54 34.03 15.48C35.58 14.91 36.62 13.15 35.86 11.15C35.7 10.74 35.43 10.37 35.08 10.1C32.85 8.39 30.13 9.75 29.8 12.05C29.63 13.24 30.14 14.37 31.04 15.04C31.21 15.16 31.3 15.36 31.27 15.56L31.21 16.01C31.14 16.53 30.7 16.93 30.18 16.94C28.09 16.97 26.08 17.5 24.3 18.43C23.81 18.68 23.22 18.54 22.89 18.1L22.64 17.77C22.52 17.6 22.51 17.39 22.59 17.2C23.28 15.7 22.76 13.74 20.82 12.86C20.42 12.68 19.97 12.61 19.53 12.67C16.74 13.04 15.78 15.92 17.17 17.78C17.89 18.74 19.05 19.18 20.17 19.02C20.37 18.99 20.58 19.06 20.7 19.22L20.95 19.55C21.28 19.99 21.25 20.6 20.87 21C19.48 22.44 18.41 24.21 17.79 26.2C17.63 26.7 17.13 27.02 16.61 26.94L16.14 26.87C15.94 26.84 15.79 26.7 15.73 26.52C15.16 24.97 13.4 23.93 11.4 24.69C10.99 24.85 10.62 25.12 10.35 25.47C8.64 27.7 10 30.42 12.3 30.75C13.49 30.92 14.62 30.41 15.29 29.51C15.41 29.34 15.61 29.25 15.81 29.28L16.26 29.34C16.78 29.41 17.18 29.85 17.19 30.37C17.22 32.46 17.75 34.47 18.68 36.25C18.93 36.74 18.79 37.33 18.35 37.66L18.02 37.91C17.85 38.03 17.64 38.04 17.45 37.96C15.95 37.27 13.99 37.79 13.11 39.73C12.93 40.13 12.86 40.58 12.92 41.02C13.29 43.81 16.17 44.77 18.03 43.38C18.99 42.66 19.43 41.5 19.27 40.38C19.24 40.18 19.31 39.97 19.47 39.85L19.8 39.6C20.24 39.27 20.85 39.3 21.25 39.68C22.69 41.07 24.46 42.14 26.45 42.76C26.95 42.92 27.27 43.42 27.19 43.94L27.12 44.41C27.09 44.61 26.95 44.76 26.77 44.82C25.22 45.39 24.18 47.15 24.94 49.15C25.1 49.56 25.37 49.93 25.72 50.2C27.95 51.91 30.67 50.55 31 48.25C31.17 47.06 30.66 45.93 29.76 45.26C29.59 45.14 29.5 44.94 29.53 44.74L29.59 44.29C29.66 43.77 30.1 43.37 30.62 43.36C32.71 43.33 34.72 42.8 36.5 41.87C36.99 41.62 37.58 41.76 37.91 42.2L38.16 42.53C38.28 42.7 38.29 42.91 38.21 43.1C37.52 44.6 38.04 46.56 39.98 47.44C40.38 47.62 40.83 47.69 41.27 47.63C44.06 47.26 45.02 44.38 43.63 42.52C42.91 41.56 41.75 41.12 40.63 41.28C40.43 41.31 40.22 41.24 40.1 41.08L39.85 40.75C39.52 40.31 39.55 39.7 39.93 39.3C41.32 37.86 42.39 36.09 43.01 34.1C43.17 33.6 43.67 33.28 44.19 33.36L44.64 33.43C44.84 33.46 45 33.61 45.08 33.8C45.47 34.85 46.41 35.67 47.6 35.84C49.9 36.17 51.97 33.95 50.96 31.32C50.81 30.9 50.53 30.53 50.18 30.27Z" fill="#319EFF"/>
<path d="M52.06 10.82L56.58 6.3L54.48 4.2L50 8.68C44.76 3.77 37.73 0.75 30 0.75C13.87 0.75 0.75 13.87 0.75 30C0.75 37.73 3.77 44.76 8.68 50L3.4 55.28L5.5 57.38L10.82 52.06C15.96 56.53 22.67 59.25 30 59.25C46.13 59.25 59.25 46.13 59.25 30C59.25 22.67 56.53 15.96 52.06 10.82ZM3.72 30C3.72 15.51 15.51 3.72 30 3.72C36.91 3.72 43.21 6.41 47.9 10.78L10.78 47.9C6.4 43.21 3.72 36.91 3.72 30ZM30 56.28C23.49 56.28 17.52 53.89 12.92 49.95L49.95 12.92C53.89 17.52 56.28 23.48 56.28 30C56.28 44.49 44.49 56.28 30 56.28Z" fill="#FF4633"/>
</svg>
